trunk/public/assets/images/icons/blue/remove/guestbook.svg

<svg width="16" height="16" xmlns="http://www.w3.org/2000/svg" viewBox="0 0 16 16" shape-rendering="geometricPrecision" fill="#24437c"><defs><mask id="a"><rect fill="#fff" width="100%" height="100%"/><path fill="#000" d="M8.986 1.143H17v3.565H8.986z"/></mask></defs><path d="M9.986 2.143H16v1.565H9.986z" fill="#cb1800"/><path d="M11.03 9.168H9.308v.744h1.724v-.744zM7.07 6.992l.973-2.43L5.5 3.545 4.12 6.992H.892V16h14.216V6.99h-8.04zm.437 8.013H1.882V7.982h1.84l-.966 2.413 2.54 1.02L6.67 7.98h.835v7.023zm6.612 0h-5.62V7.982h5.62v7.023zm-1.26-4.5h-3.55v.746h3.55v-.744zM8.732 2.844c.275-.7-.065-1.493-.764-1.77-.7-.282-1.492.057-1.778.754L5.78 2.843l2.542 1.022.41-1.022zM3.06 13.316l1.152-.983-1.295-.517.143 1.5z" mask="url(#a)"/></svg>

<?xml version="1.0"?><!DOCTYPE svg PUBLIC "-//W3C//DTD SVG 1.1//EN" "http://www.w3.org/Graphics/SVG/1.1/DTD/svg11.dtd"><svg width="16px" height="16px" xmlns="http://www.w3.org/2000/svg" viewBox="0 0 16 16" shape-rendering="geometricPrecision" fill="#24437c"><defs><mask id="remove-path"><rect fill="#fff" width="100%" height="100%"/><rect x="8.986" y="1.143" width="8.014" height="3.565" fill="#000"/></mask></defs><g fill="#cb1800"><rect x="9.986" y="2.143" width="6.014" height="1.565"/></g><g mask="url(#remove-path)"><path d="M11.031,9.168H9.307v0.744h1.724V9.168z M7.068,6.992l0.973-2.429L5.5,3.544L4.12,6.992H0.892v9.007 h14.216V6.992H7.068z M7.505,15.005H1.882V7.982h1.84l-0.966,2.413l2.54,1.019l1.375-3.432h0.834V15.005z M14.117,15.005h-5.62 V7.982h5.62V15.005z M12.858,10.506H9.307v0.745h3.551V10.506z M8.731,2.843H8.73c0.275-0.7-0.065-1.493-0.764-1.771 c-0.7-0.281-1.492,0.058-1.778,0.755L5.78,2.843l2.542,1.022L8.731,2.843z M3.058,13.316l1.152-0.983l-1.295-0.517L3.058,13.316z"/></g></svg>
